flaticon/files-and-folders/files-12.svg

<svg xmlns="http://www.w3.org/2000/svg" width="32" height="32" viewBox="0 0 24 24">
    <path d="M 20.792969 5.117188 C 20.769531 5 20.707031 4.90625 20.609375 4.851562 L 15.949219 0.191406 C 15.894531 0.09375 15.800781 0.0273438 15.683594 0.0078125 C 15.648438 0 15.613281 0 15.578125 0 L 4.398438 0 C 3.71875 0 3.199219 0.523438 3.199219 1.203125 L 3.199219 22.800781 C 3.199219 23.480469 3.71875 24 4.398438 24 L 19.597656 24 C 20.277344 24 20.796875 23.480469 20.796875 22.800781 L 20.796875 5.222656 C 20.800781 5.1875 20.800781 5.152344 20.792969 5.117188 Z M 19.4375 4.800781 L 16.398438 4.800781 C 16.160156 4.800781 16 4.640625 16 4.402344 L 16 1.363281 Z M 20 22.800781 C 20 23.039062 19.839844 23.199219 19.597656 23.199219 L 4.398438 23.199219 C 4.160156 23.199219 4 23.039062 4 22.800781 L 4 1.203125 C 4 1 4.160156 0.800781 4.398438 0.800781 L 15.199219 0.800781 L 15.199219 4.402344 C 15.199219 5.082031 15.71875 5.601562 16.398438 5.601562 L 20 5.601562 Z M 20 22.800781"/>
    <path d="M6 5.601562L11.199219 5.601562C11.4375 5.601562 11.597656 5.441406 11.597656 5.203125 11.597656 4.960938 11.4375 4.800781 11.199219 4.800781L6 4.800781C5.757812 4.800781 5.601562 4.960938 5.601562 5.203125 5.601562 5.441406 5.757812 5.601562 6 5.601562zM6 7.199219L9.199219 7.199219C9.4375 7.199219 9.597656 7.042969 9.597656 6.800781 9.597656 6.5625 9.4375 6.402344 9.199219 6.402344L6 6.402344C5.757812 6.402344 5.601562 6.5625 5.601562 6.800781 5.601562 7.042969 5.757812 7.199219 6 7.199219zM11.199219 6.402344L10.800781 6.402344C10.558594 6.402344 10.398438 6.5625 10.398438 6.800781 10.398438 7.042969 10.558594 7.199219 10.800781 7.199219L11.199219 7.199219C11.4375 7.199219 11.597656 7.042969 11.597656 6.800781 11.597656 6.5625 11.4375 6.402344 11.199219 6.402344zM14.398438 12C14.398438 12.308594 14.488281 12.597656 14.640625 12.839844L13.238281 14.242188C13.238281 14.242188 13.238281 14.242188 13.238281 14.238281 12.992188 14.089844 12.707031 14 12.398438 14 12.101562 14 11.824219 14.082031 11.585938 14.226562L11.277344 13.921875 10.972656 13.617188C11.117188 13.375 11.199219 13.097656 11.199219 12.800781 11.199219 11.921875 10.480469 11.199219 9.597656 11.199219 8.71875 11.199219 8 11.921875 8 12.800781 8 13.097656 8.082031 13.375 8.222656 13.617188L6.398438 15.441406 6.398438 9.199219C6.398438 8.960938 6.238281 8.800781 6 8.800781 5.757812 8.800781 5.597656 8.960938 5.597656 9.199219L5.597656 19.199219C5.597656 19.441406 5.757812 19.601562 6 19.601562L16 19.601562C16.238281 19.601562 16.398438 19.441406 16.398438 19.199219 16.398438 18.960938 16.238281 18.800781 16 18.800781L6.398438 18.800781 6.398438 16.558594 8.757812 14.199219C9.28125 14.480469 9.917969 14.480469 10.398438 14.199219L10.71875 14.480469 11.023438 14.785156C10.882812 15.023438 10.800781 15.304688 10.800781 15.601562 10.800781 16.480469 11.519531 17.199219 12.398438 17.199219 13.277344 17.199219 14 16.480469 14 15.601562 14 15.3125 13.921875 15.042969 13.789062 14.8125L15.210938 13.390625C15.441406 13.523438 15.710938 13.601562 16 13.601562 16.878906 13.601562 17.597656 12.878906 17.597656 12 17.597656 11.121094 16.878906 10.402344 16 10.402344 15.117188 10.402344 14.398438 11.121094 14.398438 12zM9.597656 12C10.039062 12 10.398438 12.359375 10.398438 12.800781 10.398438 12.996094 10.328125 13.179688 10.207031 13.316406 10.191406 13.332031 10.175781 13.34375 10.160156 13.359375 10.128906 13.398438 10.09375 13.429688 10.054688 13.457031 9.929688 13.546875 9.773438 13.597656 9.605469 13.601562 9.402344 13.597656 9.199219 13.519531 9.039062 13.359375 9.023438 13.347656 9.011719 13.335938 8.996094 13.324219 8.875 13.183594 8.800781 13 8.800781 12.800781 8.800781 12.359375 9.160156 12 9.597656 12zM12.398438 16.402344C11.960938 16.402344 11.597656 16.039062 11.597656 15.601562 11.597656 15.402344 11.671875 15.21875 11.796875 15.078125 11.808594 15.066406 11.824219 15.054688 11.839844 15.039062 11.871094 15.003906 11.90625 14.972656 11.941406 14.945312 12.070312 14.855469 12.226562 14.800781 12.390625 14.800781 12.59375 14.804688 12.800781 14.882812 12.960938 15.039062 12.976562 15.054688 12.992188 15.070312 13.007812 15.082031 13.125 15.222656 13.199219 15.402344 13.199219 15.601562 13.199219 16.039062 12.839844 16.402344 12.398438 16.402344zM16.800781 12C16.800781 12.441406 16.4375 12.800781 16 12.800781 15.558594 12.800781 15.199219 12.441406 15.199219 12 15.199219 11.5625 15.558594 11.199219 16 11.199219 16.4375 11.199219 16.800781 11.5625 16.800781 12zM16.800781 12"/>
</svg>

<svg xmlns="http://www.w3.org/2000/svg" width="32" height="32" viewBox="0 0 24 24">
    <path d="M20.793 5.117a.378.378 0 0 0-.184-.265L15.95.192a.367.367 0 0 0-.265-.184C15.648 0 15.614 0 15.578 0H4.398C3.718 0 3.2.523 3.2 1.203v21.598c0 .68.52 1.199 1.2 1.199h15.199c.68 0 1.199-.52 1.199-1.2V5.224a.32.32 0 0 0-.004-.106zm-1.355-.316h-3.04c-.238 0-.398-.16-.398-.399V1.363zm.562 18c0 .238-.16.398-.402.398h-15.2c-.238 0-.398-.16-.398-.398V1.203a.4.4 0 0 1 .398-.402H15.2v3.601c0 .68.52 1.2 1.2 1.2H20zm0 0"/>
    <path d="M6 5.602h5.2c.238 0 .398-.16.398-.399 0-.242-.16-.402-.399-.402H6c-.242 0-.398.16-.398.402 0 .238.156.399.398.399zm0 0M6 7.2h3.2c.238 0 .398-.157.398-.4 0-.237-.16-.398-.399-.398H6c-.242 0-.398.16-.398.399 0 .242.156.398.398.398zm0 0M11.2 6.402h-.4c-.241 0-.402.16-.402.399 0 .242.16.398.403.398h.398c.239 0 .399-.156.399-.398 0-.239-.16-.399-.399-.399zm0 0M14.398 12c0 .309.09.598.243.84l-1.403 1.402v-.004a1.619 1.619 0 0 0-.84-.238 1.56 1.56 0 0 0-.812.227l-.309-.305-.304-.305c.144-.242.226-.52.226-.816 0-.88-.719-1.602-1.601-1.602a1.605 1.605 0 0 0-1.375 2.418l-1.825 1.824V9.2c0-.238-.16-.398-.398-.398-.242 0-.402.16-.402.398v10c0 .242.16.403.402.403h10c.238 0 .398-.16.398-.403 0-.238-.16-.398-.398-.398H6.398v-2.242l2.36-2.36c.523.281 1.16.281 1.64 0l.32.281.305.305a1.602 1.602 0 0 0 1.375 2.414c.88 0 1.602-.719 1.602-1.597 0-.29-.078-.559-.21-.79l1.42-1.421c.231.132.5.21.79.21.879 0 1.598-.722 1.598-1.601s-.72-1.598-1.598-1.598c-.883 0-1.602.72-1.602 1.598zm-4.8 0c.441 0 .8.36.8.8 0 .196-.07.38-.191.516-.016.016-.031.028-.047.043a.498.498 0 0 1-.105.098.799.799 0 0 1-.45.145.817.817 0 0 1-.566-.243c-.016-.011-.027-.023-.043-.035A.802.802 0 0 1 9.598 12zm2.8 4.402a.807.807 0 0 1-.8-.8c0-.2.074-.383.199-.524.012-.012.027-.023.043-.039a.76.76 0 0 1 .101-.094.789.789 0 0 1 .45-.144.84.84 0 0 1 .57.238.468.468 0 0 0 .047.043c.117.14.191.32.191.52 0 .437-.36.8-.8.8zM16.801 12a.802.802 0 0 1-1.602 0c0-.438.36-.8.801-.8.438 0 .8.363.8.8zm0 0"/>
</svg>
